inst/assets/svg/wi-direction-left.svg

<?xml version="1.0" encoding="UTF-8"?>
<svg xmlns="http://www.w3.org/2000/svg" xmlns:xlink="http://www.w3.org/1999/xlink" width="30pt" height="30pt" viewBox="0 0 30 30" version="1.1">
<g id="surface196">
<path style=" stroke:none;fill-rule:nonzero;fill:rgb(0%,0%,0%);fill-opacity:1;" d="M 7.089844 14.960938 C 7.089844 15.328125 7.210938 15.640625 7.460938 15.878906 L 11.300781 19.628906 C 11.519531 19.878906 11.808594 20.011719 12.148438 20.011719 C 12.5 20.011719 12.800781 19.890625 13.039063 19.660156 C 13.28125 19.429688 13.410156 19.128906 13.410156 18.78125 C 13.410156 18.429688 13.289063 18.128906 13.039063 17.890625 L 11.398438 16.25 L 21.699219 16.25 C 22.050781 16.25 22.339844 16.128906 22.570313 15.878906 C 22.800781 15.628906 22.910156 15.328125 22.910156 14.980469 C 22.910156 14.628906 22.800781 14.328125 22.570313 14.078125 C 22.339844 13.828125 22.050781 13.699219 21.699219 13.691406 L 11.398438 13.691406 L 13.039063 12.03125 C 13.28125 11.789063 13.410156 11.5 13.410156 11.171875 C 13.410156 10.820313 13.289063 10.519531 13.039063 10.28125 C 12.789063 10.039063 12.5 9.898438 12.140625 9.898438 C 11.820313 9.898438 11.53125 10.039063 11.289063 10.308594 L 7.449219 14.058594 C 7.210938 14.308594 7.089844 14.601563 7.089844 14.960938 Z M 7.089844 14.960938 "/>
</g>
</svg>

<?xml version="1.0" encoding="utf-8"?>
<!-- Generator: Adobe Illustrator 22.0.1, SVG Export Plug-In . SVG Version: 6.00 Build 0)  -->
<svg version="1.1" id="Layer_1" xmlns="http://www.w3.org/2000/svg" xmlns:xlink="http://www.w3.org/1999/xlink" x="0px" y="0px"
	 viewBox="0 0 30 30" style="enable-background:new 0 0 30 30;" xml:space="preserve">
<path d="M7.09,14.96c0,0.37,0.12,0.68,0.37,0.92l3.84,3.75c0.22,0.25,0.51,0.38,0.85,0.38c0.35,0,0.65-0.12,0.89-0.35
	s0.37-0.53,0.37-0.88s-0.12-0.65-0.37-0.89l-1.64-1.64h10.3c0.35,0,0.64-0.12,0.87-0.37s0.34-0.55,0.34-0.9s-0.11-0.65-0.34-0.9
	s-0.52-0.38-0.87-0.39H11.4l1.64-1.66c0.24-0.24,0.37-0.53,0.37-0.86c0-0.35-0.12-0.65-0.37-0.89S12.5,9.9,12.14,9.9
	c-0.32,0-0.61,0.14-0.85,0.41l-3.84,3.75C7.21,14.31,7.09,14.6,7.09,14.96z"/>
</svg>
